projects/plugins/boost/app/assets/static/images/cross.svg

<svg fill="none" height="24" viewBox="0 0 25 24" width="25" xmlns="http://www.w3.org/2000/svg" xmlns:xlink="http://www.w3.org/1999/xlink"><mask id="a" height="14" maskUnits="userSpaceOnUse" width="15" x="5" y="5"><path d="m19.5 6.41-1.41-1.41-5.59 5.59-5.59-5.59-1.41 1.41 5.59 5.59-5.59 5.59 1.41 1.41 5.59-5.59 5.59 5.59 1.41-1.41-5.59-5.59z" fill="#fff"/></mask><g mask="url(#a)"><path d="m.5 0h24v24h-24z" fill="#e65054"/></g></svg>

<svg width="25" height="24" viewBox="0 0 25 24" fill="none" xmlns="http://www.w3.org/2000/svg">
<mask id="mask0_2997_990" style="mask-type:alpha" maskUnits="userSpaceOnUse" x="5" y="5" width="15" height="14">
<path d="M19.5 6.41L18.09 5L12.5 10.59L6.91 5L5.5 6.41L11.09 12L5.5 17.59L6.91 19L12.5 13.41L18.09 19L19.5 17.59L13.91 12L19.5 6.41Z" fill="white"/>
</mask>
<g mask="url(#mask0_2997_990)">
<rect x="0.5" width="24" height="24" fill="#E65054"/>
</g>
</svg>
